libs/ui/packages/crypto-icons/src/svg/STARS.svg

<svg width="400" height="400" viewBox="0 0 400 400" fill="none">
<path d="M200 400C146.566 400 96.3636 379.192 58.5859 341.414C20.8081 303.636 0 253.434 0 200C0 146.566 20.8081 96.3636 58.5859 58.5859C96.3636 20.8081 146.566 0 200 0C253.434 0 303.636 20.8081 341.414 58.5859C379.192 96.3636 400 146.566 400 200C400 253.434 379.192 303.636 341.414 341.414C303.636 379.192 253.434 400 200 400ZM200 16.2626C98.6869 16.2626 16.2626 98.6869 16.2626 200C16.2626 301.313 98.6869 383.737 200 383.737C301.313 383.737 383.737 301.313 383.737 200C383.737 98.6869 301.313 16.2626 200 16.2626ZM176.162 141.414L59.3939 112.525L136.97 204.545L73.3333 306.768L184.848 261.414L262.424 353.434L253.737 233.434L365.253 188.081L248.485 159.192L239.798 39.1919L176.162 141.414Z" fill="#e38cd4"/>
</svg>

<svg width="400" height="400" viewBox="0 0 400 400" fill="none"><path fill="#e38cd4" d="M200 400c-53.434 0-103.636-20.808-141.414-58.586S0 253.434 0 200 20.808 96.364 58.586 58.586 146.566 0 200 0s103.636 20.808 141.414 58.586S400 146.566 400 200s-20.808 103.636-58.586 141.414S253.434 400 200 400m0-383.737C98.687 16.263 16.263 98.687 16.263 200S98.687 383.737 200 383.737 383.737 301.313 383.737 200 301.313 16.263 200 16.263m-23.838 125.151L59.394 112.525l77.576 92.02-63.637 102.223 111.515-45.354 77.576 92.02-8.687-120 111.516-45.353-116.768-28.889-8.687-120z"/></svg>
